src/assets/images/twitter.svg

<!DOCTYPE svg PUBLIC "-//W3C//DTD SVG 1.1//EN" "http://www.w3.org/Graphics/SVG/1.1/DTD/svg11.dtd">
<!-- Uploaded to: SVG Repo, www.svgrepo.com, Transformed by: SVG Repo Mixer Tools -->
<svg width="800px" height="800px" viewBox="0 0 24 24" fill="none" xmlns="http://www.w3.org/2000/svg">
<g id="SVGRepo_bgCarrier" stroke-width="0"/>
<g id="SVGRepo_tracerCarrier" stroke-linecap="round" stroke-linejoin="round"/>
<g id="SVGRepo_iconCarrier"> <path fill-rule="evenodd" clip-rule="evenodd" d="M19.7828 3.91825C20.1313 3.83565 20.3743 3.75444 20.5734 3.66915C20.8524 3.54961 21.0837 3.40641 21.4492 3.16524C21.7563 2.96255 22.1499 2.9449 22.4739 3.11928C22.7979 3.29366 23 3.6319 23 3.99986C23 5.08079 22.8653 5.96673 22.5535 6.7464C22.2911 7.40221 21.9225 7.93487 21.4816 8.41968C21.2954 11.7828 20.3219 14.4239 18.8336 16.4248C17.291 18.4987 15.2386 19.8268 13.0751 20.5706C10.9179 21.3121 8.63863 21.4778 6.5967 21.2267C4.56816 20.9773 2.69304 20.3057 1.38605 19.2892C1.02813 19.0108 0.902313 18.5264 1.07951 18.109C1.25671 17.6916 1.69256 17.4457 2.14144 17.5099C3.42741 17.6936 4.6653 17.4012 5.6832 16.9832C5.48282 16.8742 5.29389 16.7562 5.11828 16.6346C4.19075 15.9925 3.4424 15.1208 3.10557 14.4471C2.96618 14.1684 2.96474 13.8405 3.10168 13.5606C3.17232 13.4161 3.27562 13.293 3.40104 13.1991C2.04677 12.0814 1.49999 10.5355 1.49999 9.49986C1.49999 9.19192 1.64187 8.90115 1.88459 8.71165C1.98665 8.63197 2.10175 8.57392 2.22308 8.53896C2.12174 8.24222 2.0431 7.94241 1.98316 7.65216C1.71739 6.3653 1.74098 4.91284 2.02985 3.75733C2.1287 3.36191 2.45764 3.06606 2.86129 3.00952C3.26493 2.95299 3.6625 3.14709 3.86618 3.50014C4.94369 5.36782 6.93116 6.50943 8.78086 7.18568C9.6505 7.50362 10.4559 7.70622 11.0596 7.83078C11.1899 6.61019 11.5307 5.6036 12.0538 4.80411C12.7439 3.74932 13.7064 3.12525 14.74 2.84698C16.5227 2.36708 18.5008 2.91382 19.7828 3.91825ZM10.7484 9.80845C10.0633 9.67087 9.12171 9.43976 8.09412 9.06408C6.7369 8.56789 5.16088 7.79418 3.84072 6.59571C3.86435 6.81625 3.89789 7.03492 3.94183 7.24766C4.16308 8.31899 4.5742 8.91899 4.94721 9.10549C5.40342 9.3336 5.61484 9.8685 5.43787 10.3469C5.19827 10.9946 4.56809 11.0477 3.99551 10.9046C4.45603 11.595 5.28377 12.2834 6.66439 12.5135C7.14057 12.5929 7.49208 13.0011 7.49986 13.4838C7.50765 13.9665 7.16949 14.3858 6.69611 14.4805L5.82565 14.6546C5.95881 14.7703 6.103 14.8838 6.2567 14.9902C6.95362 15.4727 7.65336 15.6808 8.25746 15.5298C8.70991 15.4167 9.18047 15.6313 9.39163 16.0472C9.60278 16.463 9.49846 16.9696 9.14018 17.2681C8.49626 17.8041 7.74425 18.2342 6.99057 18.5911C6.63675 18.7587 6.24134 18.9241 5.8119 19.0697C6.14218 19.1402 6.48586 19.198 6.84078 19.2417C8.61136 19.4594 10.5821 19.3126 12.4249 18.6792C14.2614 18.0479 15.9589 16.9385 17.2289 15.2312C18.497 13.5262 19.382 11.1667 19.5007 7.96291C19.51 7.71067 19.6144 7.47129 19.7929 7.29281C20.2425 6.84316 20.6141 6.32777 20.7969 5.7143C20.477 5.81403 20.1168 5.90035 19.6878 5.98237C19.3623 6.04459 19.0272 5.94156 18.7929 5.70727C18.0284 4.94274 16.5164 4.43998 15.2599 4.77822C14.6686 4.93741 14.1311 5.28203 13.7274 5.89906C13.3153 6.52904 13 7.51045 13 8.9999C13 9.28288 12.8801 9.5526 12.6701 9.74221C12.1721 10.1917 11.334 9.92603 10.7484 9.80845Z" fill="#fff"/> </g>
</svg>

<svg width="800" height="800" viewBox="0 0 24 24" fill="none" xmlns="http://www.w3.org/2000/svg"><path fill-rule="evenodd" clip-rule="evenodd" d="M19.783 3.918c.348-.082.591-.164.79-.249.28-.12.51-.263.876-.504A1 1 0 0 1 23 4c0 1.08-.135 1.967-.447 2.746a5.47 5.47 0 0 1-1.071 1.674c-.187 3.363-1.16 6.004-2.648 8.005-1.543 2.074-3.595 3.402-5.759 4.146-2.157.741-4.436.907-6.478.656-2.029-.25-3.904-.921-5.211-1.938a1 1 0 0 1 .755-1.78c1.286.185 2.524-.108 3.542-.526-.2-.109-.39-.227-.565-.348-.927-.643-1.676-1.514-2.012-2.188A1 1 0 0 1 3.4 13.2C2.047 12.081 1.5 10.536 1.5 9.5a1 1 0 0 1 .723-.96 7.357 7.357 0 0 1-.24-.887c-.266-1.287-.242-2.74.047-3.895A1 1 0 0 1 3.866 3.5c1.078 1.868 3.065 3.01 4.915 3.686.87.318 1.675.52 2.279.645.13-1.22.47-2.227.994-3.027a4.586 4.586 0 0 1 2.686-1.957c1.783-.48 3.76.067 5.043 1.071zm-9.035 5.89a18.334 18.334 0 0 1-2.654-.744c-1.357-.496-2.933-1.27-4.253-2.468.023.22.057.439.1.652.222 1.071.633 1.671 1.006 1.857a1 1 0 0 1 .49 1.242c-.239.648-.869.7-1.441.558.46.69 1.288 1.378 2.668 1.609a1 1 0 0 1 .032 1.966l-.87.175c.133.115.277.229.43.335.698.483 1.397.69 2.001.54a1 1 0 0 1 .883 1.738c-.644.536-1.396.966-2.15 1.323-.353.168-.749.333-1.178.479.33.07.674.128 1.029.172 1.77.217 3.741.07 5.584-.563 1.836-.631 3.534-1.74 4.804-3.448 1.268-1.705 2.153-4.064 2.272-7.268a1 1 0 0 1 .292-.67c.45-.45.821-.965 1.004-1.579-.32.1-.68.186-1.11.268a1 1 0 0 1-.894-.275c-.765-.764-2.277-1.267-3.533-.929A2.587 2.587 0 0 0 13.727 5.9C13.315 6.53 13 7.51 13 9a1 1 0 0 1-.33.743c-.498.45-1.336.184-1.922.066z" fill="#fff"/></svg>
